X:1
T:Pádraig O'Keeffe's
R:hornpipe
M:4/4
L:1/8
K:D
dB|:ABAF A2Bc|defd ~e2dB|A2FA B2AF|E2ED E2FG|
|ABAF A2Bc|defd ~e2dB|A2DG B2AF|1 D2DE D2dB:|2 D2DE D2de|]
|:fefg afde|fefg afde|~f2ba fbaf|edef ~e2dB|
|ABAF A2Bc|defd ~e2dB|A2DG B2AF|1 D2DE D2de:|2 D2DE D2dB|]